!!!ONB: MCCC : IJH0456_03 : Extracted Monophonic Melody
!!!COM: Haydn, Joseph
!!!OPR: String Quartet in F minor
!!!OMV: 3
!!!SCT: Hob.III:35 ; Op.20 No.5
!!!ODT: 1772///
**kern
*thru
*k[b-]
*F:
*clefG
*M6/8
8.cc
16dd
8cc
8cc
8dd
8a
=1
8.b-
16cc
8b-
4b-
8r
=2
8.b-
16cc
8b-
8b-
8dd
8g
=3
8.a
16b-
8a
4a
8r
=4
8.ff
16gg
8ff
8gg
8aa
8bb-
=5
8.ee
16ff
8ee
4ff
8r
=6
8.dd
16cc#
8dd
8dd
8cc
8b-
=7
8.a
16b-
8g
4f
8r
=8
4.r
32ccc
32bb-
32aa
32gg
32ff
32ee
32dd
32cc
32b-
32a
32g
32f
=9
4e
4r
32cc
32ee
32dd
32ff
32ee
32gg
32ff
32aa
=10
8gg
4r
32bb-
32ccc
32ddd
32ccc
32bb-
32aa
32gg
32ff
32ee
32dd
32cc
32b-
=11
8a
4r
32r
32f
32e
32f
32g
32f
32a
32f
32b-
32f
32cc
32f
=12
4dd
8.r
16ff#
16gg
16bb-
16ddd
16bb-
=13
16r
16ee
16gg
16ccc
16eee
16ggg
32r
32ee
32ff
32gg
32aa
32gg
32ff
32ee
32dd
32cc
32b-
32a
=14
4.g
32r
32bb-
32gg
32ee
32cc
32b-
32g
32e
8f
=15
4.r
32r
32f
32e
32f
32g
32f
32a
32g
32b-
32a
32dd
32cc
=16
8.cc
16dd
8cc
16cc
16aa
16gg
16ff
16ee
16dd
=17
6..cc#[
48cc#]
32dd
32ee
32dd
32a
32g
32a
32f
32a
32e
32a
32d
32a
32e
32a
=18
24f
24a
24b-
24b
24cc
24cc#
24dd
24ee
24ff
24ff#
24gg
24gg#
8.aa
16cc
=19
8cc
32b
32g
32f#
32g
32a
32g
32f#
32g
8G
4r
=20
8.gg
16aa
8gg
16gg
16ff
16r
32ee
32dd
32cc
32b
32a
32g
=21
32f
32e
32a
32g
32cc
32b
32a
32g
32f
32e
32d
32c
8G
4r
=22
8gg
24gg
24aa
24gg
24ccc
24bb
24aa
24gg
24ff
24ee
24dd
24cc
24b
24a
24g
24f
=23
24e
24a
24g
24cc
24b
24a
24g
24f
24e
8d
4r
=24
8.gg
16aa
8gg
4ccc
8gg#
=25
32aa
32bb
32ccc
32bb
32aa
32gg
32ff
32ee
32gg
32ff
32aa
32gg
32ff
32ee
32dd
32cc#
32ee
32dd
32ff
32ee
32dd
32cc
32b
32a
=26
8.g
32ee
32cc
32gg
32ee
32gg
32ee
4cc
16dd
16cc
=27
8cc
8cc
8cc
4dd
16b
16g
=28
8cc
8cc
8cc
4dd
16b
16g
=29
8cc
8ee
8ee
8.ee
16ff
8ee
=30
8ee
8ee
8ee
8.ff#
16gg
8ff#
=31
8gg
8ff
8ee
4.dd
=32
8ee
8ff
8gg
4.dd
=33
8ee
8ff
8gg
4.dd
=34
8ee
8ff
8gg
8aa
8bb
8ccc
=35
8ddd
24r
24ddd
24eee
24fff
24ddd
24bb
8gg
8ff
8dd
=36
8b
8f
8e
8a
8d
8ff
=37
8b
8f
8e
8r
8a
8r
=38
8r
8b
4r
8cc
8cc
=39
8cc
16r
32e
32f
32g
32e
32f
32d
32e
32c
32B
32c
32d
32c
32e
32c
32f
32c
32g
32c
=40
8a
8r
8b
8cc
4r
=41
8.cc
16dd
8cc
8cc
8dd
8a
=42
2.b-[
=43
8.b-]
16cc
8b-
8b-
8dd
8g
=44
2.a[
=45
8.a]
16b-
8a
8a
8dd
8cc
=46
16b-
16dd
16gg
16bb-
16aa
16ccc
16bb-
16aa
16gg
16ff
16ee
16dd
=47
8cc#
8aa
8aa
16aa
32gg#
32aa
32bb-
32aa
32bb
32aa
32ccc
32aa
32ccc#
32aa
=48
8ddd
8aa
8.aa
32gg#
32aa
32bb
32aa
32ccc#
32aa
32ddd
32aa
32ddd#
32aa
=49
8eee
8aa
8.aa
32gg#
32aa
32bb
32aa
32ccc#
32aa
32ddd
32aa
32eee
32aa
=50
4fff
8f
8g
8bb-
8cc#
=51
8dd
8r
8f
8g
8bb-
8cc#
=52
32dd
32cc#
32ee
32dd
32ff
32ee
32gg
32ff
32aa
32gg
32ff
32ee
32dd
32cc#
32dd
32ee
32ff#
32gg
32aa
32bb-
32ccc
32ddd
32ccc
32bb-
=53
32aa
32ccc
32bb-
32ddd
32ccc
32bb-
32aa
32gg
32ff#
32aa
32gg
32bb-
32aa
32ccc
32bb-
32aa
32gg
32ff
32ee
32dd
32cc
32b
32cc
32dd
=54
32ee
32ff
32gg
32aa
32bb-
32ccc
32bb-
32aa
32gg
32ff
32ee
32gg
32ff
32aa
32gg
32ff
32ee
32dd
32cc
32b-
32a
32cc
32b-
32gg
=55
32ff
32ee
32dd
32cc
32b-
32a
32b-
32b
32cc
32ee
32g
32cc
8e
4r
=56
2.r
=57
4.r
32r
32bb-
32aa
32bb-
32ccc
32bb-
32ddd
32ccc
32bb-
32aa
32ddd
32ccc
=58
8bb-
6..r
48r
16bb-
16gg
16ee
16cc
16b-
=59
4a
12..r
96r
32ff
32ee
32ff
32gg
32ff
32aa
32gg
32ff
32ee
32dd
32cc#
=60
4dd
12..r
96r
32ddd
32ccc#
32ddd
32ccc#
32ddd
32ccc#
32ddd
32ccc
32bb-
32aa
32gg
=61
16ff
16ee
16gg
16ccc
16eee
16ggg
32r
32ee
32ff
32gg
32aa
32gg
32ff
32ee
32dd
32cc
32b-
32a
=62
4g
12..r
96r
32bb-
32gg
32ee
32cc
32b-
32g
32e
8f
=63
4.r
32r
32c
32B
32c
32d
32c
32d
32e
32f
32g
32a
32b-
=64
8.cc
16dd
8cc
16cc
16b-
16r
32aa
32gg
32ff
32ee
32dd
32cc
=65
32b-
32a
32dd
32cc
32ff
32ee
32dd
32cc
32b-
32a
32g
32f
4c
8r
=66
8cc
24cc
24dd
24cc
24ff
24ee
24dd
24cc
24b-
24a
24g
24f
24e
24d
24c
24B-
=67
24A
24d
24c
24f
24e
24g
24f
24cc
24a
8g
4r
=68
8.cc
16dd
8cc
4ff
8cc#
=69
32dd
32ee
32ff
32ee
32dd
32cc
32b-
32a
32cc
32b-
32dd
32cc
32b-
32a
32g
32f#
32a
32g
32b-
32a
32g
32f
32e
32d
=70
8c[
16c]
32a
32f
32cc
32a
32cc
32a
4f
16g
16f
=71
8f
8f
8f
4g
16e
16c
=72
8f
8f
8f
4g
16e
16c
=73
8f
8a
8a
8.a
16b-
8a
=74
8a
8a
8a
8.b
16cc
8b
=75
8cc
8b-
8a
4.g
=76
8a
8b-
8cc
4.g
=77
8a
8b-
8cc
4.g
=78
8a
8b-
8cc
8dd
8ee
8ff
=79
8gg
24r
24gg
24aa
24bb-
24gg
24ee
8cc
8b-
8g
=80
8e
8b-
8a
8dd
8g
8bb-
=81
8ee
8b-
8a
8r
8dd
8r
=82
8r
8ee
4r
8ff
8ff
=83
8ff
16r
32a
32b-
32cc
32a
32b-
32g
32a
32f
32e
32f
32g
32f
32a
32f
32b-
32f
32cc
32f
=84
8dd
8r
8e
8f
4r
==
*-
